X:1
T:"Short" Evening Service
T:(Dorian Mode)
T:Magnificat
T:Thomas Tallis c1505 - 1585 ed. Crookall 
T:"Short" Evening Service (Dorian Mode) Magnificat 
C:Thomas Tallis c1505 - 1585
C:ed. Crookall
%%score [ ( 1 2 ) ( 3 4 ) ]
L:1/8
M:4/4
K:E
V:1 treble nm="P1" snm="S A"
V:2 treble 
V:3 bass nm="P2" snm="T B"
V:4 bass 
V:1
 F4 | A6 A2 | G2 c2 c2 ^B2 | c4 G2 A2 | B2 B2 B2 c2 | d4 c2 c2 | e2 d2 c3 c | ^B4 z2 | B4 B2 | %9
w: My|soul doth|mag- ni- fy the|Lord: and my|spi- rit hath re-|joic- ed in|God my Sa- vi-|our.|For he|
w: |||||||||
 A2 A2 | G4 G2 G2 | G3 G G2 B2 A2 A2 | G2 G2 z2 | G2 B2 | d4 c2- | c2 ^B2 c2 G2 | BB d4 c2 ^B2 e2 | %17
w: hath re-|gard- ed the|low- li- ness of his hand-|maid- en.|For be-|hold from|hence- * forth all|ge- ne- ra- ti- ons shall|
w: ||||||||
 d2 c4 ^B2 | c4 z2 c2 | c4 c2 B2 | A4 G2 G2 | B3 B A2 | G4 A2 | G2 F2 F2 ^E2 | F4 z2 | c2 c2 | %26
w: call me bless-|ed. For|he that is|migh- ty hath|mag- ni- fied|me: and|ho- ly is his|name.|And his|
w: |||||||||
 c4 B2 | A2 A2 G2 G2 | B4 A2 G2 | G2 A2 G2 F2 | F2 ^E2 F8 | c6 c2 c2 ^B2 | c6 c2 | d4 e4 e3 d | %34
w: mer- cy|is on them that|fear him through-|out all ge- ne-|ra- * ti-|He hath shew- ed|strength with|* arm: he hath|
w: ||||||strength with|his arm: he hath|
 c2 B2 A2 (GF) | G2 G2 G2 G2 | A2 B2 c3 B | A2 G4 (F2- | F2 ^E2) F4 | z2 c2 c2 c2 | c2 ^B2 (c4 | %41
w: scat- ter- the * *|proud in the i-|ma- gi- na- ti-|on of their|* * hearts.|He hath put|down the migh-|
w: scat- ter- ed the *||||||* * migh-|
 c2) c2 d2 d2 | e4 z2 e2 | e2 c2 e3 (d | c2) B2 A2 G2- | G2 F2 | G4 z2 | G4 G2 | G4 A2 B2 | %49
w: from their * *|seat: and|hath ex- al- ted|* the hum- ble|* and|meek.|He hath|fill- ed the|
w: * ty from their|seat: *|||||||
 c3 (B A2) G2 | F4 | E2 E2 F2 | G4 A2 | G2 A3 (G F2) | F2 ^E2 | F4 z2 | A4 B2 | c4 c2 c2 | %58
w: hun- * gry with|good|things: and the|rich he|hath sent emp- ty|a- *|way.|He re-|mem- b'ring his|
w: ||||* * emp- *|ty a-|way.|||
 c3 (B A2) A2 | G2 GG G2 c2 | c3 c | c4 z2 | c2 B2 | A3 A G2 G2 | A4 G2 | F4 E2 | G3 A B2 c2 d2- | %67
w: mer- * cy hath|hol- pen his ser- vant|Is- ra-|el:|as he|pro- mi- sed to|our fore-|* thers,|A- bra- ham and his|
w: ||||||our fore-|fa- thers,||
 d2 c4 ^B2 | c2 c2 z2 || e3 e e2 d2 c2- | c2 ^B2 c2 e2 e2 e2 | d2 c2 | ^B2 c2 c2 B2 | c4 z2 | %74
w: seed * for|ev- er.|Glo- ry be to the|Fa- * ther, and to the|Son and|to the Ho- *|Ghost;|
w: |||||||
 c3 c c2 | B2 AA (A2 G2) | A2 c2 c2 c2 | B2 A4 G2 | A2 A2 A2 A2 | G2 (F4 ^E2) | F8 |] %81
w: As it was|in the be- gin- *|ning, is now and|ev- er shall|be, world with- out|end. A- *|men.|
w: |||||||
V:2
 F4 | F6 C2 | E2 F2 G2 G2 | G4 E2 F2 | G2 G2 G2 G2 | (FEFG) A2 A2 | G2 G2 G3 G | G4 x2 | G4 G2 | %9
 E2 F2 | D4 C2 C2 | B,3 A, G,2 G2 E2 F2 | D2 D2 x2 | G2 G2 | G2 (FG AF) | G4 G2 G2 | %16
 GG G3 (A F2) G2 =B2 | A2 G2 G4 | G4 x2 E2 | A4 A2 G2 | F4 E2 E2 | F3 F E2 | E4 C2 | D2 B,2 C2 C2 | %24
 C4 x2 | A2 A2 | A4 G2 | F2 F2 E2 E2 | F4 E2 E2 | E2 C2 D2 B,2 | C3 C C8 | A6 A2 G2 G2 | %32
 F3 (E DC) (C2- | C2 ^B,2) C4 C2 C2 | EE G2 F4 | E2 E2 E2 E2 | E2 F2 A3 G | E2 E3 (D C2- | C4) C4 | %39
 x2 A2 A2 A2 | G2 G2 F2 E2 | (DC) (C4 ^B,2) | C4 x2 C2 | G2 A2 G3 (F | A2) G2 F2 (D2 | E2) C2 | %46
 C4 x2 | E4 E2 | E4 E2 (FG) | A4 E2 E2 | C4 | C2 C2 D2 | E4 E2 | =D2 C2 A,2 B,2 | C4 | C4 x2 | %56
 F4 G2 | A4 E2 A2 | G4 F2 C2 | E2 EF G2 F2 | ^E3 E | ^E4 x2 | C2 E2 | F3 F E2 E2 | D3 C C2- | %65
 C2 ^B,2 C2 | C3 C B,2 E2 G2 | G6 G2 | G2 G2 x2 || G3 G C2 D2 (EF) | G4 G2 G2 G2 C2 | D2 (EF) | %72
 G2 G2 G3 G | G4 x2 | E3 E A,2 | B,2 CD E4 | E2 E2 E2 A,2 | B,2 (CD) E4 | E2 F2 F2 C2 | %79
 E2 (B,2 C4) | C8 |] %81
V:3
 C4 | C6 A,2 | B,2 C2 D2 D2 | C2 E4 C2 | D2 D2 D2 E2 | (D2 B,2) F2 F2 | E(D B,2) E3 E | D4 z2 | %8
w: ||||||||
w: ||||||||
 D4 D2 | C2 C2- | C2 ^B,2 C2 E2 | EE D4 E2 C2 C2 | ^B,2 B,2 z2 | E2 D2 | D3 (B, C2) | D4 C2 E2 | %16
w: |||low- li- ness * * *|||||
w: |||low- * * li- * *|||||
 D2 G,2 B,2 C2 D2 G2 | F2 E2 D4 | C4 z2 C2 | E4 E2 E2 | C4 C2 B,2 | D3 D C2 | B,4 A,2 | %23
w: ge- ne- * ti- ons *|||||||
w: ge- ne- ra- ti- ons *|||||||
 B,2 F,2 G,2 G,2 | F,4 z2 | F2 F2 | E4 E2 | C2 C2 C2 B,2 | D4 C2 B,2 | B,2 A,2 B,2 F,2 | %30
w: |||||||
w: |||||||
 G,3 G, F,8 | F6 F2 E2 D2 | C3 (B, A,2) (G,2 | F,4) G,4 G,2 G,2 | G,2 G,2 C2 C2 | C2 C2 B,2 B,2 | %36
w: ||||scat- ter- ed the||
w: ||||scat- ter- the *||
 C2 D2 E3 D | C2 B,4 (A,2 | G,4) F,4 | z2 F2 F3 E | D2 D2 C3 B, | A,2 (G,2 F,4) | G,4 z2 C2 | %43
w: |||||||
w: |||||||
 C2 C2 C4 | C2 G,2 C2 B,2- | B,C A,2 | G,4 z2 | C4 C2 | B,4 C2 D2 | E3 D C2 B,2 | A,4 | %51
w: ||||||hun- * * gry|with|
w: ||||||||
 G,2 G,2 B,2 | B,4 C2 | B,2 E,2 F,4 | G,2 G,2 | F,4 z2 | C4 E2 | E4 C2 F2 | E3 D C2 A,2 | %59
w: ||* * emp-|ty a-|way.||||
w: ||||||||
 C2 B,A, G,2 A,2 | G,3 G, | G,4 z2 | A,2 B,2 | C3 C C2 B,2 | A,3 G, E,2 | F,4 G,2 | %66
w: |||||our * fore-|fa- thers,|
w: |||||||
 E3 E D2 C2 B,2 | E4 D4 | C2 C2 z2 || C3 D EF G2 C2 | D4 C2 C2 CDEF | G2 C2 | D2 E2 D3 D | C4 z2 | %74
w: ||||||||
w: ||||||||
 C3 C E2 | E2 A,A, B,4 | A,2 A,2 A,B,CD | E2 A,2 B,4 | A,2 C2 C2 A,2 | B,A,G,F, G,4 | F,8 |] %81
w: |||||||
w: |||||||
V:4
 F,4 | F,6 F,2 | E,2 A,2 G,2 G,2 | C,2 C3 (B, A,2) | G,2 G,2 G,2 E,2 | B,4 F,2 F,2 | %6
 C2 G,2 E,2 C,2 | G,4 x2 | G,4 G,2 | A,2 F,2 | G,4 C,2 C,2 | G,3 G, G,2 G,2 A,2 F,2 | G,2 G,2 x2 | %13
 C,2 G,2 | B,4 A,2 | G,4 C,2 C,2 | G,G, B,4 A,2 G,2 E,2 | F,2 C,2 G,4 | C,4 x2 A,2 | A,4 A,2 E,2 | %20
 F,4 C,2 E,2 | B,,3 B,, C,2 | E,4 F,2 | B,,2 D,2 C,2 C,2 | F,4 x2 | F,2 F,2 | A,4 E,2 | %27
 F,2 F,2 C,2 E,2 | B,,4 C,2 E,2 | E,2 F,2 B,,2 D,2 | C,3 C, F,8 | F,6 F,2 G,2 G,2 | %32
 A,3 (G, F,2) (E,2 | D,4) C,4 C,2 C,2 | C,C, E,2 F,4 | C,2 C,2 E,3 D, | C,3 B,, A,,3 A,, | %37
 A,,2 E,4 (F,2 | C,4) F,4 | x2 F,2 F,2 F,2 | G,2 G,2 A,3 G, | F,2 (E,2 D,4) | C,4 x2 C,2 | %43
 C,2 F,2 C,4 | C,2 E,2 F,2 G,2 | E,2 F,2 | C,4 x2 | C,4 C,2 | E,3 D, C,2 B,,2 | A,,6 E,2 | %50
 F,2 F,2 | C,2 C,2 B,,2 | E,4 A,,2 | B,,2 C,2 =D,4 | C,2 C,2 | F,4 x2 | F,4 E,2 | A,4 A,2 F,2 | %58
 C4 F,2 F,2 | C,2 C,C, E,2 A,,2 | C,3 C, | C,4 x2 | A,2 G,2 | F,3 F, C,2 E,2 | F,2 C,2 E,2 | %65
 D,4 C,2 | C,3 C, G,2 A,2 G,2 | E,3 F, G,4 | C,2 C,2 x2 || C3 C C2 B,2 A,2 | G,4 C,2 C2 C2 C2 | %71
 B,2 A,2 | G,2 C,2 G,3 G, | C,4 x2 | A,3 A, A,2 | G,2 F,F, E,4 | A,,2 A,2 A,2 A,2 | G,2 F,2 E,4 | %78
 A,,2 F,2 F,2 F,2 | E,2 (D,2 C,B,, C,2) | F,8 |] %81

